dist/img/svg/icon-fb.svg

<svg width="30" height="30" viewBox="0 0 30 30" fill="none" xmlns="http://www.w3.org/2000/svg">
<path d="M30 15.0913C30 6.75456 23.2863 0 15 0C6.71371 0 0 6.75456 0 15.0913C0 22.6235 5.48528 28.8669 12.6562 30V19.4538H8.84577V15.0913H12.6562V11.7663C12.6562 7.98438 14.8942 5.89533 18.3218 5.89533C19.9633 5.89533 21.6798 6.18986 21.6798 6.18986V9.90183H19.7879C17.925 9.90183 17.3438 11.0653 17.3438 12.2586V15.0913H21.5038L20.8385 19.4538H17.3438V30C24.5147 28.8669 30 22.6235 30 15.0913Z" fill="#3B589B"/>
</svg>

<svg width="30" height="30" viewBox="0 0 30 30" fill="none" xmlns="http://www.w3.org/2000/svg"><path d="M30 15.091C30 6.755 23.286 0 15 0S0 6.755 0 15.091C0 22.624 5.485 28.867 12.656 30V19.454h-3.81V15.09h3.81v-3.325c0-3.782 2.238-5.87 5.666-5.87 1.641 0 3.358.294 3.358.294v3.712h-1.892c-1.863 0-2.444 1.163-2.444 2.357v2.832h4.16l-.666 4.363h-3.494V30C24.514 28.867 30 22.623 30 15.091z" fill="#3B589B"/></svg>
